X: 42356
T: Welcome Home Grainne
R: jig
M: 6/8
K: Amixolydian
|:e2d cBA|ecA Bcd|e2d cde|dBG Bcd|
e2d cBA|eAd =cBA|GBd g2e|dBG Bcd:|
|:eaa agf|ecA Bcd|egg g2e|dBG Bcd|
eaa agf|gfe f2e|def g2e|dBG Bcd:|

